X: 2065
T: Âteş-i Aşkınla Ey Şûh-i Şenim
C: Hâşim Bey
O: Turkey
F: http://compmusic.upf.edu/node/140
N: sedaraban--sarki--agiraksak--ates-i_askinla--hasim_bey
N: makam= sedaraban
N: form= sarki
N: usul= agiraksak = 9/4
M: 9/4
L: 1/16
K: C _7/8B _7/8e ^f ^c
Q: 1/4=72
%%MIDI tuningsystem comma53
d2cd c2d2 e2fg fed2 a2gb a2g2 ab=c'b agfe d4  | 
w:  ARANAĞME  | 
edcd c2de d2cd cBA2 dcBA AGGF G2AB AGFE FGAB  | 
w:   | 
=c2BA G2B2 A2G2 FEF2 A2GF FEED D3B AGF_3/4E D4  | 
w:   | 
d2cd c2d2 e2fg fed2 a2gb a2g2 ab=c'b agfe d4  | 
w:  ARANAĞME  | 
edcd c2de d2cd cBA2 dcBA AGGF G2AB AGFE FGAB  | 
w:   | 
=c2BA G2B2 A2G2 FEF2 A2GF F_3/4EED D8 z4  | \
w:   | 
z8 z2d4ef e2d4e2 eddc B2c2 d2cd  | 
w:  Â teş_ *  i  *  *  aş  | 
e2de f2ef g2g4g2 bagf ed=c2 g6fg abag  | 
w:  *  *  *  *  *  *  *  kın la  ey  *  *  *  *  *  *  şûh_  | 
g8 z2a=c' b2a2 gagf e2f2 d8 aga2  | \
w:  *  i  *  *  *  *  *  *  *  *  *  *  şe  | 
a2ga g2f2 f2g2 fed2 e2fg fedc d4 z2fe dcBc  | 
w:  *  nim   *  *  *  *  *  *  *  *  *  *  *  *  *  *  *  *  SAZ  | 
d3e dcd2 z2d4=e2 =fede d2=c2 _1/4BcBA B2c2 d2e2  | 
w:  *  *  *  *  *  Misl_ i  fer *  *  *  *  *  hâd   | 
d=c=ec _1/4B3/2A/G2 z2d4d2 c3_e d2c2 _B3A G2FG A4  | \
w:  *  *  *  *  *  *  *  ol du  dağ *  *  *  lar   | 
=cBAG F4 z2FG F2GA G2AB AGFE D8 A3/2G/A2  | 
w:  *  *  *  *  *  mes *  *  *  *  *  *  *  *  *  *  *  *  ke  | 
A2GA B2AG F6D2 EFED E2F2 D4 z2fe dcBc  | 
w:  *  nim  *  *  *  *  *  *  *  *  *  *  *  a man   SAZ  | 
d3e dcd2 z2d4=e2 =fede d2=c2 _1/4BcBA B2c2 d2e2  | 
w:  *  *  *  *  *  Misl_ i  fer *  *  *  *  *  hâd   | 
d=c=ec _1/4B3/2A/G2 z2d4d2 c3_e d2c2 _B3A G2FG A4  | \
w:  *  *  *  *  *  *  *  ol du  dağ *  *  *  lar   | 
=cBAG F4 z2FG F2GA G2AB AGFE D8 A3/2G/A2  | 
w:  *  *  *  *  *  mes *  *  *  *  *  *  *  *  *  *  *  *  ke  | 
A2GA B2AG F6D2 EFED E2F2 D4 z2ab aggf  | 
w:  *  nim  *  *  *  *  *  *  *  *  *  *  *  a man   SAZ  | 
g3a gfg2 z2g4g2 gfef e2d2 d=cc_1/4B c2d2 e2f2  | 
w:  *  *  *  *  *  Çâ re  ne  *  *  *  *  *  sev  | 
g8-g2g4ab agfe d2e2 f6ab agfe  | d3g fga2 z2a=c' b2a2 gagf e2f2 d8 aga2  | 
w:  *  dim  e *  fen *  *  *  *  *  dim   |  *  SAZ *  *  *  suç  *  *  *  *  *  *  *  *  *  *  be  | 
a2ga g2f2 f2g2 fed2 e2fg fedc d4 z2fe dcBc  | 
w:  *  nim   *  *  *  *  *  *  *  *  *  *  *  *  *  *  *  *  SAZ  | 
d3e dcd2 z2d4=e2 =fede d2=c2 _1/4BcBA B2c2 d2e2  | 
w:  *  *  *  *  *  Misl_ i  fer *  *  *  *  *  hâd   | 
d=c=ec _1/4B3/2A/G2 z2d4d2 c3_e d2c2 _B3A G2FG A4  | \
w:  *  *  *  *  *  *  *  ol du  dağ *  *  *  lar   | 
=cBAG F4 z2FG F2GA G2AB AGFE D8 A3/2G/A2  | 
w:  *  *  *  *  *  mes *  *  *  *  *  *  *  *  *  *  *  *  ke  | 
A2GA B2AG F6D2 EFED E2F2 D4 z2fe dcBc  | 
w:  *  nim  *  *  *  *  *  *  *  *  *  *  *  a man   SAZ  | 
d3e dcd2 z2d4=e2 =fede d2=c2 _1/4BcBA B2c2 d2e2  | 
w:  *  *  *  *  *  Misl_ i  fer *  *  *  *  *  hâd   | 
d=c=ec _1/4B3/2A/G2 z2d4d2 c3_e d2c2 _B3A G2FG A4  | \
w:  *  *  *  *  *  *  *  ol du  dağ *  *  *  lar   | 
=cBAG F4 z2FG F2GA G2AB AGFE D8 A3/2G/A2  | 
w:  *  *  *  *  *  mes *  *  *  *  *  *  *  *  *  *  *  *  ke  | 
A2GA B2AG F6D2 EFED E2F2 D4 z2|
w:  *  nim  *  *  *  *  *  *  *  *  *  *  *  a man    | 


